uml/fluxOverview.svg

<?xml version="1.0" encoding="UTF-8"?>
<!DOCTYPE svg PUBLIC '-//W3C//DTD SVG 1.0//EN'
          'http://www.w3.org/TR/2001/REC-SVG-20010904/DTD/svg10.dtd'>
<svg fill-opacity="1" xmlns:xlink="http://www.w3.org/1999/xlink" color-rendering="auto" color-interpolation="auto" text-rendering="auto" stroke="black" stroke-linecap="square" width="380" stroke-miterlimit="10" shape-rendering="auto" stroke-opacity="1" fill="black" stroke-dasharray="none" font-weight="normal" stroke-width="1" viewBox="310 80 380 380" height="380" xmlns="http://www.w3.org/2000/svg" font-family="'Dialog'" font-style="normal" stroke-linejoin="miter" font-size="12px" stroke-dashoffset="0" image-rendering="auto"
><!--Generated by the Batik Graphics2D SVG Generator--><defs id="genericDefs"
  /><g
  ><defs id="defs1"
    ><clipPath clipPathUnits="userSpaceOnUse" id="clipPath1"
      ><path d="M0 0 L2147483647 0 L2147483647 2147483647 L0 2147483647 L0 0 Z"
      /></clipPath
      ><clipPath clipPathUnits="userSpaceOnUse" id="clipPath2"
      ><path d="M0 0 L0 40 L120 40 L120 0 Z"
      /></clipPath
      ><clipPath clipPathUnits="userSpaceOnUse" id="clipPath3"
      ><path d="M0 0 L0 140 L30 140 L30 0 Z"
      /></clipPath
      ><clipPath clipPathUnits="userSpaceOnUse" id="clipPath4"
      ><path d="M0 0 L0 70 L110 70 L110 0 Z"
      /></clipPath
      ><clipPath clipPathUnits="userSpaceOnUse" id="clipPath5"
      ><path d="M0 0 L0 30 L130 30 L130 0 Z"
      /></clipPath
      ><clipPath clipPathUnits="userSpaceOnUse" id="clipPath6"
      ><path d="M0 0 L0 70 L120 70 L120 0 Z"
      /></clipPath
      ><clipPath clipPathUnits="userSpaceOnUse" id="clipPath7"
      ><path d="M0 0 L0 80 L80 80 L80 0 Z"
      /></clipPath
      ><clipPath clipPathUnits="userSpaceOnUse" id="clipPath8"
      ><path d="M0 0 L0 70 L140 70 L140 0 Z"
      /></clipPath
    ></defs
    ><g fill="rgb(255,255,255)" fill-opacity="0" transform="translate(440,100)" stroke-opacity="0" stroke="rgb(255,255,255)"
    ><rect x="0.5" y="0.5" clip-path="url(#clipPath2)" width="118.5" rx="8" ry="8" height="38.5" stroke="none"
    /></g
    ><g transform="translate(440,100)"
    ><rect x="0.5" y="0.5" clip-path="url(#clipPath2)" fill="none" width="118.5" rx="8" ry="8" height="38.5"
      /><text x="41" font-size="14px" y="25.0547" clip-path="url(#clipPath2)" font-family="sans-serif" stroke="none" xml:space="preserve"
      >State</text
    ></g
    ><g fill="rgb(255,255,255)" fill-opacity="0" transform="translate(440,240)" stroke-opacity="0" stroke="rgb(255,255,255)"
    ><rect x="0.5" y="0.5" clip-path="url(#clipPath2)" width="118.5" rx="8" ry="8" height="38.5" stroke="none"
    /></g
    ><g transform="translate(440,240)"
    ><rect x="0.5" y="0.5" clip-path="url(#clipPath2)" fill="none" width="118.5" rx="8" ry="8" height="38.5"
      /><text x="12" font-size="14px" y="25.0547" clip-path="url(#clipPath2)" font-family="sans-serif" stroke="none" xml:space="preserve"
      >Utils/Services</text
    ></g
    ><g fill="rgb(255,255,255)" fill-opacity="0" transform="translate(550,170)" stroke-opacity="0" stroke="rgb(255,255,255)"
    ><rect x="0.5" y="0.5" clip-path="url(#clipPath2)" width="118.5" rx="8" ry="8" height="38.5" stroke="none"
    /></g
    ><g transform="translate(550,170)"
    ><rect x="0.5" y="0.5" clip-path="url(#clipPath2)" fill="none" width="118.5" rx="8" ry="8" height="38.5"
      /><text x="27" font-size="14px" y="25.0547" clip-path="url(#clipPath2)" font-family="sans-serif" stroke="none" xml:space="preserve"
      >Selectors</text
    ></g
    ><g fill="rgb(255,255,255)" fill-opacity="0" transform="translate(550,320)" stroke-opacity="0" stroke="rgb(255,255,255)"
    ><rect x="0.5" y="0.5" clip-path="url(#clipPath2)" width="118.5" rx="8" ry="8" height="38.5" stroke="none"
    /></g
    ><g transform="translate(550,320)"
    ><rect x="0.5" y="0.5" clip-path="url(#clipPath2)" fill="none" width="118.5" rx="8" ry="8" height="38.5"
      /><text x="25" font-size="14px" y="25.0547" clip-path="url(#clipPath2)" font-family="sans-serif" stroke="none" xml:space="preserve"
      >Container</text
    ></g
    ><g fill="rgb(255,255,255)" fill-opacity="0" transform="translate(440,400)" stroke-opacity="0" stroke="rgb(255,255,255)"
    ><rect x="0.5" y="0.5" clip-path="url(#clipPath2)" width="118.5" rx="8" ry="8" height="38.5" stroke="none"
    /></g
    ><g transform="translate(440,400)"
    ><rect x="0.5" y="0.5" clip-path="url(#clipPath2)" fill="none" width="118.5" rx="8" ry="8" height="38.5"
      /><text x="15" font-size="14px" y="25.0547" clip-path="url(#clipPath2)" font-family="sans-serif" stroke="none" xml:space="preserve"
      >Components</text
    ></g
    ><g fill="rgb(255,255,255)" fill-opacity="0" transform="translate(330,320)" stroke-opacity="0" stroke="rgb(255,255,255)"
    ><rect x="0.5" y="0.5" clip-path="url(#clipPath2)" width="118.5" rx="8" ry="8" height="38.5" stroke="none"
    /></g
    ><g transform="translate(330,320)"
    ><rect x="0.5" y="0.5" clip-path="url(#clipPath2)" fill="none" width="118.5" rx="8" ry="8" height="38.5"
      /><text x="34" font-size="14px" y="25.0547" clip-path="url(#clipPath2)" font-family="sans-serif" stroke="none" xml:space="preserve"
      >Actions</text
    ></g
    ><g fill="rgb(255,255,255)" fill-opacity="0" transform="translate(330,170)" stroke-opacity="0" stroke="rgb(255,255,255)"
    ><rect x="0.5" y="0.5" clip-path="url(#clipPath2)" width="118.5" rx="8" ry="8" height="38.5" stroke="none"
    /></g
    ><g transform="translate(330,170)"
    ><rect x="0.5" y="0.5" clip-path="url(#clipPath2)" fill="none" width="118.5" rx="8" ry="8" height="38.5"
      /><text x="30" font-size="14px" y="25.0547" clip-path="url(#clipPath2)" font-family="sans-serif" stroke="none" xml:space="preserve"
      >Reducer</text
    ></g
    ><g transform="translate(380,200)"
    ><path fill="none" d="M10.5 11.5 L10.5 120.5" clip-path="url(#clipPath3)"
      /><path fill="none" d="M4 22.2583 L10.5 11 L17 22.2583" clip-path="url(#clipPath3)"
    /></g
    ><g transform="translate(400,270)"
    ><path fill="none" d="M11.3944 50.0528 L90.5 10.5" clip-path="url(#clipPath4)"
      /><path fill="none" d="M23.9239 51.0553 L10.9472 50.2764 L18.1101 39.4277" clip-path="url(#clipPath4)"
    /></g
    ><g transform="translate(440,330)"
    ><path fill="none" d="M11.5 10.5 L110.5 10.5" clip-path="url(#clipPath5)"
      /><path fill="none" d="M22.2583 17 L11 10.5 L22.2583 4" clip-path="url(#clipPath5)"
    /></g
    ><g transform="translate(500,270)"
    ><path fill="none" d="M99.5862 50.0939 L10.5 10.5" clip-path="url(#clipPath6)"
      /><path fill="none" d="M92.395 39.7847 L100.0431 50.2969 L87.1152 51.6643" clip-path="url(#clipPath6)"
    /></g
    ><g transform="translate(550,110)"
    ><path fill="none" d="M59.7929 59.7929 L10.5 10.5" clip-path="url(#clipPath7)"
      /><path fill="none" d="M56.7818 47.5894 L60.1464 60.1464 L47.5894 56.7818" clip-path="url(#clipPath7)"
    /></g
    ><g transform="translate(490,350)"
    ><path fill="none" d="M11.4398 50.1583 L120.5 10.5" clip-path="url(#clipPath8)"
      /><path fill="none" d="M23.7717 52.5903 L10.9699 50.3291 L19.3291 40.373" clip-path="url(#clipPath8)"
    /></g
    ><g transform="translate(600,200)"
    ><path fill="none" d="M10.5 119.5 L10.5 10.5" clip-path="url(#clipPath3)"
      /><path fill="none" d="M17 108.7417 L10.5 120 L4 108.7417" clip-path="url(#clipPath3)"
    /></g
    ><g transform="translate(380,110)"
    ><path fill="none" d="M59.7929 11.2071 L10.5 60.5" clip-path="url(#clipPath7)"
      /><path fill="none" d="M47.5894 14.2182 L60.1464 10.8536 L56.7818 23.4106" clip-path="url(#clipPath7)"
    /></g
  ></g
></svg
>

<svg color-interpolation="auto" stroke="#000" stroke-linecap="square" width="380" stroke-miterlimit="10" viewBox="310 80 380 380" height="380" xmlns="http://www.w3.org/2000/svg" font-family="'Dialog'" font-size="12">
  <defs>
    <clipPath id="a">
      <path d="M0 0v40h120V0z"/>
    </clipPath>
    <clipPath id="b">
      <path d="M0 0v140h30V0z"/>
    </clipPath>
    <clipPath id="c">
      <path d="M0 0v70h110V0z"/>
    </clipPath>
    <clipPath id="d">
      <path d="M0 0v30h130V0z"/>
    </clipPath>
    <clipPath id="e">
      <path d="M0 0v70h120V0z"/>
    </clipPath>
    <clipPath id="f">
      <path d="M0 0v80h80V0z"/>
    </clipPath>
    <clipPath id="g">
      <path d="M0 0v70h140V0z"/>
    </clipPath>
  </defs>
  <rect x=".5" y=".5" clip-path="url(#a)" width="118.5" rx="8" ry="8" height="38.5" fill="none" transform="translate(440 100)" stroke="none"/>
  <g transform="translate(440 100)">
    <rect x=".5" y=".5" clip-path="url(#a)" fill="none" width="118.5" rx="8" ry="8" height="38.5"/>
    <text x="41" font-size="14" y="25.1" clip-path="url(#a)" font-family="sans-serif" stroke="none">
      State
    </text>
  </g>
  <rect x=".5" y=".5" clip-path="url(#a)" width="118.5" rx="8" ry="8" height="38.5" fill="none" transform="translate(440 240)" stroke="none"/>
  <g transform="translate(440 240)">
    <rect x=".5" y=".5" clip-path="url(#a)" fill="none" width="118.5" rx="8" ry="8" height="38.5"/>
    <text x="12" font-size="14" y="25.1" clip-path="url(#a)" font-family="sans-serif" stroke="none">
      Utils/Services
    </text>
  </g>
  <rect x=".5" y=".5" clip-path="url(#a)" width="118.5" rx="8" ry="8" height="38.5" fill="none" transform="translate(550 170)" stroke="none"/>
  <g transform="translate(550 170)">
    <rect x=".5" y=".5" clip-path="url(#a)" fill="none" width="118.5" rx="8" ry="8" height="38.5"/>
    <text x="27" font-size="14" y="25.1" clip-path="url(#a)" font-family="sans-serif" stroke="none">
      Selectors
    </text>
  </g>
  <rect x=".5" y=".5" clip-path="url(#a)" width="118.5" rx="8" ry="8" height="38.5" fill="none" transform="translate(550 320)" stroke="none"/>
  <g transform="translate(550 320)">
    <rect x=".5" y=".5" clip-path="url(#a)" fill="none" width="118.5" rx="8" ry="8" height="38.5"/>
    <text x="25" font-size="14" y="25.1" clip-path="url(#a)" font-family="sans-serif" stroke="none">
      Container
    </text>
  </g>
  <rect x=".5" y=".5" clip-path="url(#a)" width="118.5" rx="8" ry="8" height="38.5" fill="none" transform="translate(440 400)" stroke="none"/>
  <g transform="translate(440 400)">
    <rect x=".5" y=".5" clip-path="url(#a)" fill="none" width="118.5" rx="8" ry="8" height="38.5"/>
    <text x="15" font-size="14" y="25.1" clip-path="url(#a)" font-family="sans-serif" stroke="none">
      Components
    </text>
  </g>
  <rect x=".5" y=".5" clip-path="url(#a)" width="118.5" rx="8" ry="8" height="38.5" fill="none" transform="translate(330 320)" stroke="none"/>
  <g transform="translate(330 320)">
    <rect x=".5" y=".5" clip-path="url(#a)" fill="none" width="118.5" rx="8" ry="8" height="38.5"/>
    <text x="34" font-size="14" y="25.1" clip-path="url(#a)" font-family="sans-serif" stroke="none">
      Actions
    </text>
  </g>
  <rect x=".5" y=".5" clip-path="url(#a)" width="118.5" rx="8" ry="8" height="38.5" fill="none" transform="translate(330 170)" stroke="none"/>
  <g transform="translate(330 170)">
    <rect x=".5" y=".5" clip-path="url(#a)" fill="none" width="118.5" rx="8" ry="8" height="38.5"/>
    <text x="30" font-size="14" y="25.1" clip-path="url(#a)" font-family="sans-serif" stroke="none">
      Reducer
    </text>
  </g>
  <path d="M10.5 11.5v109M4 22.3L10.5 11 17 22.3" clip-path="url(#b)" transform="translate(380 200)" fill="none"/>
  <path d="M11.4 50l79-39.5M24 51l-13-.7 7-11" clip-path="url(#c)" transform="translate(400 270)" fill="none"/>
  <path d="M11.5 10.5h99M22.3 17L11 10.5 22.3 4" clip-path="url(#d)" transform="translate(440 330)" fill="none"/>
  <path d="M99.6 50l-89-39.5m81.8 29.3l7.6 10.5-13 1.4" clip-path="url(#e)" transform="translate(500 270)" fill="none"/>
  <path d="M59.8 59.8L10.5 10.5m46.3 37L60 60l-12.3-3" clip-path="url(#f)" transform="translate(550 110)" fill="none"/>
  <path d="M11.4 50.2l109-39.7m-96.6 42l-12.8-2 8.3-10" clip-path="url(#g)" transform="translate(490 350)" fill="none"/>
  <path d="M10.5 119.5v-109m6.5 98.2L10.5 120 4 108.7" clip-path="url(#b)" transform="translate(600 200)" fill="none"/>
  <path d="M59.8 11.2L10.5 60.5m37-46.3L60 11l-3 12.3" clip-path="url(#f)" transform="translate(380 110)" fill="none"/>
</svg>
